Numix-Light/16/status/indicator-keyboard-Cm-1.svg

<?xml version="1.0" encoding="UTF-8" standalone="no"?>
<svg
   xmlns:dc="http://purl.org/dc/elements/1.1/"
   xmlns:cc="http://creativecommons.org/ns#"
   xmlns:rdf="http://www.w3.org/1999/02/22-rdf-syntax-ns#"
   xmlns:svg="http://www.w3.org/2000/svg"
   xmlns="http://www.w3.org/2000/svg"
   xmlns:sodipodi="http://sodipodi.sourceforge.net/DTD/sodipodi-0.dtd"
   xmlns:inkscape="http://www.inkscape.org/namespaces/inkscape"
   viewBox="0 0 16 16"
   id="svg2"
   version="1.1"
   inkscape:version="0.91 r13725"
   sodipodi:docname="indicator-keyboard-Cm-1.svg">
  <metadata
     id="metadata14">
    <rdf:RDF>
      <cc:Work
         rdf:about="">
        <dc:format>image/svg+xml</dc:format>
        <dc:type
           rdf:resource="http://purl.org/dc/dcmitype/StillImage" />
      </cc:Work>
    </rdf:RDF>
  </metadata>
  <defs
     id="defs12" />
  <sodipodi:namedview
     pagecolor="#ffffff"
     bordercolor="#666666"
     borderopacity="1"
     objecttolerance="10"
     gridtolerance="10"
     guidetolerance="10"
     inkscape:pageopacity="0"
     inkscape:pageshadow="2"
     inkscape:window-width="640"
     inkscape:window-height="480"
     id="namedview10"
     showgrid="false"
     inkscape:zoom="14.75"
     inkscape:cx="8"
     inkscape:cy="8"
     inkscape:window-x="65"
     inkscape:window-y="24"
     inkscape:window-maximized="0"
     inkscape:current-layer="svg2" />
  <path
     style="fill:#353535;fill-opacity:1"
     d="M 1.5996094 0 C 0.71320937 2.9605947e-16 0 0.71320937 0 1.5996094 L 0 14.400391 C 2.9605947e-16 15.286791 0.71320937 16 1.5996094 16 L 14.400391 16 C 15.286791 16 16 15.286791 16 14.400391 L 16 1.5996094 C 16 0.71320937 15.286791 0 14.400391 0 L 1.5996094 0 z M 3.5 4.7246094 C 3.734 4.7246094 3.9466719 4.7395312 4.1386719 4.7695312 C 4.3306719 4.7995313 4.4985781 4.8387187 4.6425781 4.8867188 C 4.7865781 4.9287188 4.9097187 4.9734844 5.0117188 5.0214844 C 5.1137187 5.0634844 5.1920938 5.1026719 5.2460938 5.1386719 L 5.046875 5.6699219 C 4.896875 5.5799219 4.7047031 5.4922031 4.4707031 5.4082031 C 4.2427031 5.3182031 3.9591875 5.2734375 3.6171875 5.2734375 C 3.2271875 5.2734375 2.8838438 5.3387031 2.5898438 5.4707031 C 2.3018438 5.6027031 2.0593281 5.7892969 1.8613281 6.0292969 C 1.6633281 6.2692969 1.5141094 6.5547656 1.4121094 6.8847656 C 1.3161094 7.2147656 1.2675781 7.5804219 1.2675781 7.9824219 C 1.2675781 8.3964219 1.3161094 8.7714219 1.4121094 9.1074219 C 1.5141094 9.4374219 1.6595625 9.719125 1.8515625 9.953125 C 2.0435625 10.187125 2.2786875 10.366188 2.5546875 10.492188 C 2.8366875 10.618187 3.1575781 10.681641 3.5175781 10.681641 C 3.9135781 10.681641 4.2438125 10.646219 4.5078125 10.574219 C 4.7778125 10.496219 4.9811406 10.417844 5.1191406 10.339844 L 5.2910156 10.861328 C 5.2490156 10.891328 5.1762187 10.928703 5.0742188 10.970703 C 4.9722187 11.006703 4.8435 11.045891 4.6875 11.087891 C 4.5315 11.129891 4.3524375 11.161547 4.1484375 11.185547 C 3.9444375 11.215547 3.7148906 11.230469 3.4628906 11.230469 C 3.0608906 11.230469 2.6858906 11.159625 2.3378906 11.015625 C 1.9958906 10.871625 1.6974531 10.660766 1.4394531 10.384766 C 1.1874531 10.108765 0.98593752 9.7691875 0.8359375 9.3671875 C 0.6919375 8.9591875 0.61914063 8.4946562 0.61914062 7.9726562 C 0.61914062 7.4506563 0.69751562 6.9898906 0.85351562 6.5878906 C 1.0155156 6.1798906 1.2281875 5.8365469 1.4921875 5.5605469 C 1.7561875 5.2845469 2.0621562 5.0774531 2.4101562 4.9394531 C 2.7581563 4.7954531 3.122 4.7246094 3.5 4.7246094 z M 8.0839844 6.3535156 C 8.6719844 6.3535156 9.0973281 6.5232344 9.3613281 6.8652344 C 9.3913281 6.8412344 9.4492031 6.8020469 9.5332031 6.7480469 C 9.6232031 6.6880469 9.7332344 6.6283594 9.8652344 6.5683594 C 9.9972343 6.5083594 10.150219 6.4580156 10.324219 6.4160156 C 10.504219 6.3740156 10.701969 6.3535156 10.917969 6.3535156 C 11.271969 6.3535156 11.557437 6.407625 11.773438 6.515625 C 11.995438 6.617625 12.167109 6.7630781 12.287109 6.9550781 C 12.407109 7.1410781 12.487297 7.3668594 12.529297 7.6308594 C 12.571297 7.8948594 12.59375 8.1821406 12.59375 8.4941406 L 12.59375 11.095703 L 12.007812 11.095703 L 12.007812 8.6835938 C 12.007812 8.3775938 11.992891 8.1145781 11.962891 7.8925781 C 11.938891 7.6645781 11.884781 7.4779844 11.800781 7.3339844 C 11.722781 7.1839844 11.608984 7.0739531 11.458984 7.0019531 C 11.308984 6.9239531 11.113047 6.8847656 10.873047 6.8847656 C 10.693047 6.8847656 10.528906 6.9015 10.378906 6.9375 C 10.234906 6.9675 10.108 7.0066875 10 7.0546875 C 9.8920001 7.1026875 9.8024687 7.1512188 9.7304688 7.1992188 C 9.6644688 7.2472187 9.6159375 7.2826406 9.5859375 7.3066406 C 9.6399375 7.4626406 9.679125 7.6398906 9.703125 7.8378906 C 9.733125 8.0298906 9.7480469 8.2332188 9.7480469 8.4492188 L 9.7480469 11.095703 L 9.1640625 11.095703 L 9.1640625 8.6835938 C 9.1640625 8.3775938 9.1491406 8.1145781 9.1191406 7.8925781 C 9.0951406 7.6645781 9.0410312 7.4779844 8.9570312 7.3339844 C 8.8730312 7.1839844 8.7536563 7.0739531 8.5976562 7.0019531 C 8.4476563 6.9239531 8.2461406 6.8847656 7.9941406 6.8847656 C 7.7121406 6.8847656 7.4714375 6.8996875 7.2734375 6.9296875 C 7.0814375 6.9596875 6.9582969 6.9857656 6.9042969 7.0097656 L 6.9042969 11.095703 L 6.3203125 11.095703 L 6.3203125 6.6054688 C 6.4943125 6.5574688 6.7181406 6.5033594 6.9941406 6.4433594 C 7.2761406 6.3833594 7.6399844 6.3535156 8.0839844 6.3535156 z M 15.111328 8.8417969 L 15.380859 8.8417969 L 15.380859 12.896484 L 15 12.896484 L 15 9.421875 C 14.9571 9.468675 14.900278 9.5157063 14.830078 9.5664062 C 14.763778 9.6171063 14.687363 9.66805 14.601562 9.71875 C 14.515763 9.76555 14.427584 9.812575 14.333984 9.859375 C 14.240384 9.902275 14.146334 9.9375437 14.052734 9.9648438 L 13.941406 9.671875 C 14.175406 9.5899751 14.383106 9.4880813 14.566406 9.3632812 C 14.749706 9.2345813 14.931928 9.0601969 15.111328 8.8417969 z "
     id="path4" />
</svg>

<svg xmlns="http://www.w3.org/2000/svg" viewBox="0 0 16 16">
 <path d="m 1.6 0 c -0.886 0 -1.6 0.713 -1.6 1.6 l 0 12.801 c 0 0.886 0.713 1.6 1.6 1.6 l 12.801 0 c 0.886 0 1.6 -0.713 1.6 -1.6 l 0 -12.801 c 0 -0.886 -0.713 -1.6 -1.6 -1.6 l -12.801 0 z m 1.9 4.725 c 0.234 0 0.447 0.015 0.639 0.045 c 0.192 0.03 0.36 0.069 0.504 0.117 c 0.144 0.042 0.267 0.087 0.369 0.135 c 0.102 0.042 0.18 0.081 0.234 0.117 l -0.199 0.531 c -0.15 -0.09 -0.342 -0.178 -0.576 -0.262 c -0.228 -0.09 -0.512 -0.135 -0.854 -0.135 c -0.39 0 -0.733 0.065 -1.027 0.197 c -0.288 0.132 -0.531 0.319 -0.729 0.559 c -0.198 0.24 -0.347 0.525 -0.449 0.855 c -0.096 0.33 -0.145 0.696 -0.145 1.098 c 0 0.414 0.049 0.789 0.145 1.125 c 0.102 0.33 0.247 0.612 0.439 0.846 c 0.192 0.234 0.427 0.413 0.703 0.539 c 0.282 0.126 0.603 0.189 0.963 0.189 c 0.396 0 0.726 -0.035 0.99 -0.107 c 0.27 -0.078 0.473 -0.156 0.611 -0.234 l 0.172 0.521 c -0.042 0.03 -0.115 0.067 -0.217 0.109 c -0.102 0.036 -0.231 0.075 -0.387 0.117 c -0.156 0.042 -0.335 0.074 -0.539 0.098 c -0.204 0.03 -0.434 0.045 -0.686 0.045 c -0.402 0 -0.777 -0.071 -1.125 -0.215 c -0.342 -0.144 -0.64 -0.355 -0.898 -0.631 c -0.252 -0.276 -0.454 -0.616 -0.604 -1.018 c -0.144 -0.408 -0.217 -0.873 -0.217 -1.395 c 0 -0.522 0.078 -0.983 0.234 -1.385 c 0.162 -0.408 0.375 -0.751 0.639 -1.027 c 0.264 -0.276 0.57 -0.483 0.918 -0.621 c 0.348 -0.144 0.712 -0.215 1.09 -0.215 z m 4.584 1.629 c 0.588 0 1.013 0.17 1.277 0.512 c 0.03 -0.024 0.088 -0.063 0.172 -0.117 c 0.09 -0.06 0.2 -0.12 0.332 -0.18 c 0.132 -0.06 0.285 -0.11 0.459 -0.152 c 0.18 -0.042 0.378 -0.063 0.594 -0.063 c 0.354 0 0.639 0.054 0.855 0.162 c 0.222 0.102 0.394 0.247 0.514 0.439 c 0.12 0.186 0.2 0.412 0.242 0.676 c 0.042 0.264 0.064 0.551 0.064 0.863 l 0 2.602 l -0.586 0 l 0 -2.412 c 0 -0.306 -0.015 -0.569 -0.045 -0.791 c -0.024 -0.228 -0.078 -0.415 -0.162 -0.559 c -0.078 -0.15 -0.192 -0.26 -0.342 -0.332 c -0.15 -0.078 -0.346 -0.117 -0.586 -0.117 c -0.18 0 -0.344 0.017 -0.494 0.053 c -0.144 0.03 -0.271 0.069 -0.379 0.117 c -0.108 0.048 -0.198 0.097 -0.27 0.145 c -0.066 0.048 -0.115 0.083 -0.145 0.107 c 0.054 0.156 0.093 0.333 0.117 0.531 c 0.03 0.192 0.045 0.395 0.045 0.611 l 0 2.646 l -0.584 0 l 0 -2.412 c 0 -0.306 -0.015 -0.569 -0.045 -0.791 c -0.024 -0.228 -0.078 -0.415 -0.162 -0.559 c -0.084 -0.15 -0.203 -0.26 -0.359 -0.332 c -0.15 -0.078 -0.352 -0.117 -0.604 -0.117 c -0.282 0 -0.523 0.015 -0.721 0.045 c -0.192 0.03 -0.315 0.056 -0.369 0.08 l 0 4.086 l -0.584 0 l 0 -4.49 c 0.174 -0.048 0.398 -0.102 0.674 -0.162 c 0.282 -0.06 0.646 -0.09 1.09 -0.09 z m 7.03 2.488 l 0.27 0 l 0 4.055 l -0.381 0 l 0 -3.475 c -0.043 0.047 -0.1 0.094 -0.17 0.145 c -0.066 0.051 -0.143 0.102 -0.229 0.152 c -0.086 0.047 -0.174 0.094 -0.268 0.141 c -0.094 0.043 -0.188 0.078 -0.281 0.105 l -0.111 -0.293 c 0.234 -0.082 0.442 -0.184 0.625 -0.309 c 0.183 -0.129 0.366 -0.303 0.545 -0.521 z" style="fill:#353535;fill-opacity:1"/>
</svg>
